;FLAVOR:Marlin
;TIME:7154
;Filament used: 8.66638m
;Layer height: 0.35
;Generated with Cura_SteamEngine 3.2.1
M190 S45
M104 S205
M109 S205
M82 ;absolute extrusion mode
G21;(metric values)
G90;(absolute positioning)
M82;(set extruder to absolute mode)
M107;(start with the fan off)
G28;(Home the printer)
G92 E0;(Reset the extruder to 0)
G0 Z5 E5 F500;(Move up and prime the nozzle)
G0 X-1 Z0;(Move outside the printable area)
G1 Y60 E8 F500;(Draw a priming/wiping line to the rear)
G1 X-1;(Move a little closer to the print area)
G1 Y10 E16 F500;(draw more priming/wiping)
G1 E15 F250;(Small retract)
G92 E0;(Zero the extruder)
;LAYER_COUNT:35
;LAYER:0
M107
G0 F4320 X20.784 Y6.239 Z0.35
;TYPE:SKIRT
G1 F1800 X20.981 Y5.633 E0.03245
G1 X21.252 Y5.057 E0.06487
G1 X21.593 Y4.519 E0.09731
G1 X21.999 Y4.028 E0.12976
G1 X22.463 Y3.592 E0.16219
G1 X22.978 Y3.217 E0.19463
G1 X23.535 Y2.91 E0.22703
G1 X24.127 Y2.675 E0.25946
G1 X24.744 Y2.516 E0.29191
G1 X25.376 Y2.435 E0.32437
G1 X25.7 Y2.425 E0.34087
G1 X94.3 Y2.425 E3.83464
G1 X94.936 Y2.465 E3.8671
G1 X95.561 Y2.584 E3.8995
G1 X96.167 Y2.781 E3.93195
G1 X96.743 Y3.052 E3.96437
G1 X97.281 Y3.393 E3.99682
G1 X97.772 Y3.799 E4.02926
G1 X98.208 Y4.263 E4.06169
G1 X98.583 Y4.778 E4.09414
G1 X98.89 Y5.335 E4.12653
G1 X99.125 Y5.927 E4.15897
G1 X99.284 Y6.544 E4.19142
G1 X99.365 Y7.176 E4.22387
G1 X99.375 Y7.5 E4.24038
G1 X99.375 Y112.5 E9.58798
G1 X99.335 Y113.136 E9.62044
G1 X99.216 Y113.761 E9.65284
G1 X99.019 Y114.367 E9.68529
G1 X98.748 Y114.943 E9.71771
G1 X98.407 Y115.481 E9.75015
G1 X98.001 Y115.972 E9.7826
G1 X97.537 Y116.408 E9.81503
G1 X97.022 Y116.783 E9.84747
G1 X96.465 Y117.09 E9.87987
G1 X95.873 Y117.325 E9.9123
G1 X95.256 Y117.484 E9.94475
G1 X94.624 Y117.565 E9.97721
G1 X94.3 Y117.575 E9.99371
G1 X25.7 Y117.575 E13.48748
G1 X25.064 Y117.535 E13.51994
G1 X24.439 Y117.416 E13.55234
G1 X23.833 Y117.219 E13.5848
G1 X23.257 Y116.948 E13.61722
G1 X22.719 Y116.607 E13.64966
G1 X22.228 Y116.201 E13.6821
G1 X21.792 Y115.737 E13.71453
G1 X21.417 Y115.222 E13.74698
G1 X21.11 Y114.665 E13.77937
G1 X20.875 Y114.073 E13.81181
G1 X20.716 Y113.456 E13.84426
G1 X20.635 Y112.824 E13.87671
G1 X20.625 Y112.5 E13.89322
G1 X20.625 Y7.5 E19.24082
G1 X20.665 Y6.864 E19.27328
G1 X20.687 Y6.75 E19.27919
G0 F1620 X20.784 Y6.239
G0 F4320 X21.134 Y6.284
G1 F2400 E19.30567
G1 F1800 X21.331 Y5.702 E19.33697
G1 X21.601 Y5.15 E19.36826
G1 X21.941 Y4.638 E19.39956
G1 X22.344 Y4.174 E19.43087
G1 X22.804 Y3.767 E19.46215
G1 X23.313 Y3.422 E19.49346
G1 X23.862 Y3.147 E19.52474
G1 X24.443 Y2.945 E19.55606
G1 X25.044 Y2.821 E19.58732
G1 X25.7 Y2.775 E19.62081
G1 X94.3 Y2.775 E23.11458
G1 X94.913 Y2.815 E23.14586
G1 X95.516 Y2.934 E23.17717
G1 X96.098 Y3.131 E23.20846
G1 X96.65 Y3.401 E23.23976
G1 X97.162 Y3.741 E23.27106
G1 X97.626 Y4.144 E23.30236
G1 X98.033 Y4.604 E23.33364
G1 X98.378 Y5.113 E23.36496
G1 X98.653 Y5.662 E23.39623
G1 X98.855 Y6.243 E23.42755
G1 X98.979 Y6.844 E23.45881
G1 X99.025 Y7.5 E23.4923
G1 X99.025 Y112.5 E28.83991
G1 X98.985 Y113.113 E28.87119
G1 X98.866 Y113.716 E28.90249
G1 X98.669 Y114.298 E28.93379
G1 X98.399 Y114.85 E28.96508
G1 X98.059 Y115.362 E28.99639
G1 X97.656 Y115.826 E29.02769
G1 X97.196 Y116.233 E29.05897
G1 X96.687 Y116.578 E29.09028
G1 X96.138 Y116.853 E29.12156
G1 X95.557 Y117.055 E29.15288
G1 X94.956 Y117.179 E29.18414
G1 X94.3 Y117.225 E29.21763
G1 X25.7 Y117.225 E32.7114
G1 X25.087 Y117.185 E32.74268
G1 X24.484 Y117.066 E32.77399
G1 X23.902 Y116.869 E32.80528
G1 X23.35 Y116.599 E32.83658
G1 X22.838 Y116.259 E32.86788
G1 X22.374 Y115.856 E32.89918
G1 X21.967 Y115.396 E32.93046
G1 X21.622 Y114.887 E32.96178
G1 X21.347 Y114.338 E32.99305
G1 X21.145 Y113.757 E33.02438
G1 X21.021 Y113.156 E33.05563
G1 X20.975 Y112.5 E33.08912
G1 X20.975 Y7.5 E38.43673
G1 X21.015 Y6.887 E38.46801
G1 X21.034 Y6.794 E38.47285
G0 F1620 X21.134 Y6.284
G0 F4320 X21.484 Y6.331
G1 F2400 E38.49933
G1 F1800 X21.68 Y5.773 E38.52945
G1 X21.95 Y5.247 E38.55956
G1 X22.288 Y4.762 E38.58967
G1 X22.688 Y4.327 E38.61977
G1 X23.144 Y3.95 E38.6499
G1 X23.646 Y3.637 E38.68003
G1 X24.185 Y3.396 E38.7101
G1 X24.753 Y3.229 E38.74025
G1 X25.337 Y3.14 E38.77034
G1 X25.7 Y3.125 E38.78884
G1 X94.3 Y3.125 E42.28261
G1 X94.89 Y3.165 E42.31273
G1 X95.469 Y3.284 E42.34283
G1 X96.027 Y3.48 E42.37295
G1 X96.553 Y3.75 E42.40307
G1 X97.038 Y4.088 E42.43317
G1 X97.473 Y4.488 E42.46327
G1 X97.85 Y4.944 E42.4934
G1 X98.163 Y5.446 E42.52353
G1 X98.404 Y5.985 E42.5536
G1 X98.571 Y6.553 E42.58376
G1 X98.66 Y7.137 E42.61384
G1 X98.675 Y7.5 E42.63235
G1 X98.675 Y112.5 E47.97995
G1 X98.635 Y113.09 E48.01007
G1 X98.516 Y113.669 E48.04017
G1 X98.32 Y114.227 E48.07029
G1 X98.05 Y114.753 E48.10041
G1 X97.712 Y115.238 E48.13051
G1 X97.312 Y115.673 E48.16061
G1 X96.856 Y116.05 E48.19074
G1 X96.354 Y116.363 E48.22087
G1 X95.815 Y116.604 E48.25094
G1 X95.247 Y116.771 E48.2811
G1 X94.663 Y116.86 E48.31118
G1 X94.3 Y116.875 E48.32969
G1 X25.7 Y116.875 E51.82345
G1 X25.11 Y116.835 E51.85357
G1 X24.531 Y116.716 E51.88368
G1 X23.973 Y116.52 E51.9138
G1 X23.447 Y116.25 E51.94391
G1 X22.962 Y115.912 E51.97402
G1 X22.527 Y115.512 E52.00411
G1 X22.15 Y115.056 E52.03425
G1 X21.837 Y114.554 E52.06438
G1 X21.596 Y114.015 E52.09445
G1 X21.429 Y113.447 E52.1246
G1 X21.34 Y112.863 E52.15469
G1 X21.325 Y112.5 E52.17319
G1 X21.325 Y7.5 E57.52079
G1 X21.365 Y6.91 E57.55091
G1 X21.38 Y6.84 E57.55456
G0 F1620 X21.484 Y6.331
G0 F4320 X21.834 Y6.38
G1 F2400 E57.58104
G1 F1800 X22.03 Y5.848 E57.60992
G1 X22.298 Y5.348 E57.63881
G1 X22.635 Y4.892 E57.66769
G1 X23.032 Y4.487 E57.69657
G1 X23.482 Y4.141 E57.72548
G1 X23.976 Y3.863 E57.75435
G1 X24.504 Y3.657 E57.78321
G1 X25.056 Y3.527 E57.8121
G1 X25.7 Y3.475 E57.845
G1 X94.3 Y3.475 E61.33877
G1 X94.866 Y3.515 E61.36767
G1 X95.42 Y3.634 E61.39653
G1 X95.952 Y3.83 E61.4254
G1 X96.452 Y4.098 E61.45429
G1 X96.908 Y4.435 E61.48317
G1 X97.313 Y4.832 E61.51206
G1 X97.659 Y5.282 E61.54097
G1 X97.937 Y5.776 E61.56984
G1 X98.143 Y6.304 E61.5987
G1 X98.273 Y6.856 E61.62758
G1 X98.325 Y7.5 E61.66049
G1 X98.325 Y112.5 E67.00809
G1 X98.285 Y113.066 E67.03699
G1 X98.166 Y113.62 E67.06585
G1 X97.97 Y114.152 E67.09473
G1 X97.702 Y114.652 E67.12362
G1 X97.365 Y115.108 E67.1525
G1 X96.968 Y115.513 E67.18138
G1 X96.518 Y115.859 E67.21029
G1 X96.024 Y116.137 E67.23916
G1 X95.496 Y116.343 E67.26802
G1 X94.944 Y116.473 E67.29691
G1 X94.3 Y116.525 E67.32981
G1 X25.7 Y116.525 E70.82358
G1 X25.134 Y116.485 E70.85248
G1 X24.58 Y116.366 E70.88134
G1 X24.048 Y116.17 E70.91021
G1 X23.548 Y115.902 E70.9391
G1 X23.092 Y115.565 E70.96798
G1 X22.687 Y115.168 E70.99686
G1 X22.341 Y114.718 E71.02577
G1 X22.063 Y114.224 E71.05464
G1 X21.857 Y113.696 E71.08351
G1 X21.727 Y113.144 E71.11239
G1 X21.675 Y112.5 E71.1453
G1 X21.675 Y7.5 E76.4929
G1 X21.715 Y6.934 E76.5218
G1 X21.725 Y6.888 E76.5242
G0 F1620 X21.834 Y6.38
G0 F4320 X22.184 Y6.431
G1 F2400 E76.55068
G1 F1800 X22.379 Y5.926 E76.57825
G1 X22.647 Y5.454 E76.6059
G1 X22.981 Y5.028 E76.63346
G1 X23.374 Y4.655 E76.66106
G1 X23.818 Y4.344 E76.68867
G1 X24.302 Y4.101 E76.71625
G1 X24.817 Y3.933 E76.74384
G1 X25.351 Y3.842 E76.77143
G1 X25.7 Y3.825 E76.78922
G1 X94.3 Y3.825 E80.28299
G1 X94.84 Y3.865 E80.31057
G1 X95.369 Y3.984 E80.33819
G1 X95.874 Y4.179 E80.36576
G1 X96.346 Y4.447 E80.3934
G1 X96.772 Y4.781 E80.42097
G1 X97.145 Y5.174 E80.44856
G1 X97.456 Y5.618 E80.47617
G1 X97.699 Y6.102 E80.50375
G1 X97.867 Y6.617 E80.53134
G1 X97.958 Y7.151 E80.55893
G1 X97.975 Y7.5 E80.57673
G1 X97.975 Y112.5 E85.92433
G1 X97.935 Y113.04 E85.95191
G1 X97.816 Y113.569 E85.97953
G1 X97.621 Y114.074 E86.0071
G1 X97.353 Y114.546 E86.03474
G1 X97.019 Y114.972 E86.06231
G1 X96.626 Y115.345 E86.0899
G1 X96.182 Y115.656 E86.11751
G1 X95.698 Y115.899 E86.14509
G1 X95.183 Y116.067 E86.17268
G1 X94.649 Y116.158 E86.20027
G1 X94.3 Y116.175 E86.21807
G1 X25.7 Y116.175 E89.71184
G1 X25.16 Y116.135 E89.73941
G1 X24.631 Y116.016 E89.76703
G1 X24.126 Y115.821 E89.7946
G1 X23.654 Y115.553 E89.82224
G1 X23.228 Y115.219 E89.84981
G1 X22.855 Y114.826 E89.87741
G1 X22.544 Y114.382 E89.90501
G1 X22.301 Y113.898 E89.9326
G1 X22.133 Y113.383 E89.96019
G1 X22.042 Y112.849 E89.98777
G1 X22.025 Y112.5 E90.00557
G1 X22.025 Y7.5 E95.35318
G1 X22.065 Y6.96 E95.38075
G1 X22.07 Y6.938 E95.3819
G0 F1620 X22.184 Y6.431
G0 F4320 X22.534 Y6.485
G1 F2400 E95.40839
G1 F1800 X22.729 Y6.008 E95.43463
G1 X22.995 Y5.566 E95.4609
G1 X23.326 Y5.172 E95.48711
G1 X23.715 Y4.833 E95.51339
G1 X24.151 Y4.558 E95.53964
G1 X24.624 Y4.354 E95.56588
G1 X25.123 Y4.225 E95.59213
G1 X25.7 Y4.175 E95.62162
G1 X94.3 Y4.175 E99.11539
G1 X94.814 Y4.215 E99.14165
G1 X95.315 Y4.334 E99.16788
G1 X95.792 Y4.529 E99.19412
G1 X96.234 Y4.795 E99.22039
G1 X96.628 Y5.126 E99.2466
G1 X96.967 Y5.515 E99.27288
G1 X97.242 Y5.951 E99.29913
G1 X97.446 Y6.424 E99.32537
G1 X97.575 Y6.923 E99.35162
G1 X97.625 Y7.5 E99.38111
G1 X97.625 Y112.5 E104.72872
G1 X97.585 Y113.014 E104.75498
G1 X97.466 Y113.515 E104.7812
G1 X97.271 Y113.992 E104.80745
G1 X97.005 Y114.434 E104.83372
G1 X96.674 Y114.828 E104.85993
G1 X96.285 Y115.167 E104.88621
G1 X95.849 Y115.442 E104.91246
G1 X95.376 Y115.646 E104.9387
G1 X94.877 Y115.775 E104.96494
G1 X94.3 Y115.825 E104.99444
G1 X25.7 Y115.825 E108.48821
G1 X25.186 Y115.785 E108.51447
G1 X24.685 Y115.666 E108.54069
G1 X24.208 Y115.471 E108.56694
G1 X23.766 Y115.205 E108.59321
G1 X23.372 Y114.874 E108.61942
G1 X23.033 Y114.485 E108.6457
G1 X22.758 Y114.049 E108.67195
G1 X22.554 Y113.576 E108.69819
G1 X22.425 Y113.077 E108.72443
G1 X22.375 Y112.5 E108.75393
G1 X22.375 Y7.5 E114.10154
G1 X22.415 Y6.991 E114.12754
G0 F1620 X22.415 Y6.986
G0 X22.534 Y6.485
G0 F4320 X22.884 Y6.541
G1 F2400 E114.15402
G1 F1800 X23.078 Y6.094 E114.17884
G1 X23.343 Y5.685 E114.20366
G1 X23.671 Y5.325 E114.22846
G1 X24.053 Y5.022 E114.2533
G1 X24.48 Y4.787 E114.27812
G1 X24.939 Y4.624 E114.30293
G1 X25.419 Y4.538 E114.32776
G1 X25.7 Y4.525 E114.34209
G1 X94.3 Y4.525 E117.83586
G1 X94.786 Y4.565 E117.86069
G1 X95.259 Y4.684 E117.88553
G1 X95.706 Y4.878 E117.91035
G1 X96.115 Y5.143 E117.93517
G1 X96.475 Y5.471 E117.95997
G1 X96.778 Y5.853 E117.98481
G1 X97.013 Y6.28 E118.00963
G1 X97.176 Y6.739 E118.03444
G1 X97.262 Y7.219 E118.05927
G1 X97.275 Y7.5 E118.0736
G1 X97.275 Y112.5 E123.4212
G1 X97.235 Y112.986 E123.44604
G1 X97.116 Y113.459 E123.47088
G1 X96.922 Y113.906 E123.4957
G1 X96.657 Y114.315 E123.52052
G1 X96.329 Y114.675 E123.54532
G1 X95.947 Y114.978 E123.57015
G1 X95.52 Y115.213 E123.59498
G1 X95.061 Y115.376 E123.61978
G1 X94.581 Y115.462 E123.64462
G1 X94.3 Y115.475 E123.65895
G1 X25.7 Y115.475 E127.15271
G1 X25.214 Y115.435 E127.17755
G1 X24.741 Y115.316 E127.20239
G1 X24.294 Y115.122 E127.22721
G1 X23.885 Y114.857 E127.25203
G1 X23.525 Y114.529 E127.27683
G1 X23.222 Y114.147 E127.30166
G1 X22.987 Y113.72 E127.32649
G1 X22.824 Y113.261 E127.35129
G1 X22.738 Y112.781 E127.37613
G1 X22.725 Y112.5 E127.39046
G1 X22.725 Y7.5 E132.73806
G1 X22.763 Y7.046 E132.76126
G0 F1620 X22.765 Y7.014
G0 X22.884 Y6.541
G0 F4320 X23.115 Y7.044
G1 F2400 E132.78775
G1 F1800 X23.233 Y6.602 E132.81105
G1 X23.427 Y6.187 E132.83438
G1 X23.69 Y5.812 E132.85771
G1 X24.014 Y5.488 E132.88104
G1 X24.389 Y5.226 E132.90434
G1 X24.804 Y5.033 E132.92765
G1 X25.246 Y4.915 E132.95095
G1 X25.7 Y4.875 E132.97416
G1 X94.3 Y4.875 E136.46793
G1 X94.756 Y4.915 E136.49124
G1 X95.198 Y5.033 E136.51454
G1 X95.613 Y5.227 E136.53787
G1 X95.988 Y5.49 E136.5612
G1 X96.312 Y5.814 E136.58454
G1 X96.574 Y6.189 E136.60784
G1 X96.767 Y6.604 E136.63115
G1 X96.885 Y7.046 E136.65444
G1 X96.925 Y7.5 E136.67766
G1 X96.925 Y112.5 E142.02526
G1 X96.885 Y112.956 E142.04858
G1 X96.767 Y113.398 E142.07187
G1 X96.573 Y113.813 E142.09521
G1 X96.31 Y114.188 E142.11853
G1 X95.986 Y114.512 E142.14187
G1 X95.611 Y114.774 E142.16517
G1 X95.196 Y114.967 E142.18848
G1 X94.754 Y115.085 E142.21178
G1 X94.3 Y115.125 E142.23499
G1 X25.7 Y115.125 E145.72876
G1 X25.244 Y115.085 E145.75207
G1 X24.802 Y114.967 E145.77537
G1 X24.387 Y114.773 E145.7987
G1 X24.012 Y114.51 E145.82203
G1 X23.688 Y114.186 E145.84536
G1 X23.426 Y113.811 E145.86866
G1 X23.233 Y113.396 E145.89197
G1 X23.115 Y112.954 E145.91527
G1 X23.075 Y112.5 E145.93848
G1 X23.075 Y7.563 E151.28288
G0 F1620 X23.075 Y7.5
G0 X23.115 Y7.044
G0 F4320 X23.465 Y7.076
G1 F2400 E151.30936
G1 F1800 X23.583 Y6.666 E151.33109
G1 X23.776 Y6.286 E151.3528
G1 X24.036 Y5.949 E151.37448
G1 X24.354 Y5.666 E151.39616
G1 X24.72 Y5.447 E151.41788
G1 X25.12 Y5.3 E151.43958
G1 X25.7 Y5.225 E151.46937
G1 X94.3 Y5.225 E154.96314
G1 X94.724 Y5.265 E154.98483
G1 X95.134 Y5.383 E155.00656
G1 X95.514 Y5.576 E155.02826
G1 X95.851 Y5.836 E155.04994
G1 X96.134 Y6.154 E155.07162
G1 X96.353 Y6.52 E155.09334
G1 X96.5 Y6.92 E155.11505
G1 X96.575 Y7.5 E155.14483
G1 X96.575 Y112.5 E160.49244
G1 X96.535 Y112.924 E160.51413
G1 X96.417 Y113.334 E160.53586
G1 X96.224 Y113.714 E160.55756
G1 X95.964 Y114.051 E160.57924
G1 X95.646 Y114.334 E160.60092
G1 X95.28 Y114.553 E160.62264
G1 X94.88 Y114.7 E160.64435
G1 X94.3 Y114.775 E160.67413
G1 X25.7 Y114.775 E164.1679
G1 X25.276 Y114.735 E164.18959
G1 X24.866 Y114.617 E164.21132
G1 X24.486 Y114.424 E164.23303
G1 X24.149 Y114.164 E164.2547
G1 X23.866 Y113.846 E164.27638
G1 X23.647 Y113.48 E164.29811
G1 X23.5 Y113.08 E164.31981
G1 X23.425 Y112.5 E164.3496
G1 X23.425 Y7.595 E169.69236
G0 F1620 X23.425 Y7.5
G0 X23.465 Y7.076
G0 F4320 X23.815 Y7.11
G1 F2400 E169.71885
G1 F1800 X23.933 Y6.736 E169.73882
G1 X24.124 Y6.394 E169.75877
G1 X24.381 Y6.098 E169.77874
G1 X24.692 Y5.86 E169.79868
G1 X25.045 Y5.69 E169.81863
G1 X25.425 Y5.595 E169.83858
G1 X25.7 Y5.575 E169.85263
G1 X94.3 Y5.575 E173.3464
G1 X94.69 Y5.615 E173.36636
G1 X95.064 Y5.733 E173.38634
G1 X95.406 Y5.924 E173.40629
G1 X95.702 Y6.181 E173.42625
G1 X95.94 Y6.492 E173.44619
G1 X96.11 Y6.845 E173.46615
G1 X96.205 Y7.225 E173.4861
G1 X96.225 Y7.5 E173.50014
G1 X96.225 Y112.5 E178.84775
G1 X96.185 Y112.89 E178.86771
G1 X96.067 Y113.264 E178.88769
G1 X95.876 Y113.606 E178.90764
G1 X95.619 Y113.902 E178.9276
G1 X95.308 Y114.14 E178.94755
G1 X94.955 Y114.31 E178.9675
G1 X94.575 Y114.405 E178.98745
G1 X94.3 Y114.425 E179.00149
G1 X25.7 Y114.425 E182.49526
G1 X25.31 Y114.385 E182.51523
G1 X24.936 Y114.267 E182.5352
G1 X24.594 Y114.076 E182.55515
G1 X24.298 Y113.819 E182.57512
G1 X24.06 Y113.508 E182.59506
G1 X23.89 Y113.155 E182.61502
G1 X23.795 Y112.775 E182.63496
G1 X23.775 Y112.5 E182.64901
G1 X23.775 Y7.628 E187.99009
G0 F1620 X23.775 Y7.5
G0 X23.815 Y7.11
G0 F4320 X24.165 Y7.148
G1 F2400 E188.01658
G1 F1800 X24.282 Y6.814 E188.0346
G1 X24.472 Y6.514 E188.05269
G1 X24.723 Y6.264 E188.07073
G1 X25.024 Y6.077 E188.08878
G1 X25.36 Y5.962 E188.10686
G1 X25.7 Y5.925 E188.12428
G1 X94.3 Y5.925 E191.61805
G1 X94.652 Y5.965 E191.63609
G1 X94.986 Y6.082 E191.65412
G1 X95.286 Y6.272 E191.6722
G1 X95.536 Y6.523 E191.69025
G1 X95.723 Y6.824 E191.70829
G1 X95.838 Y7.16 E191.72638
G1 X95.875 Y7.5 E191.7438
G1 X95.875 Y112.5 E197.0914
G1 X95.835 Y112.852 E197.10945
G1 X95.718 Y113.186 E197.12747
G1 X95.528 Y113.486 E197.14556
G1 X95.277 Y113.736 E197.1636
G1 X94.976 Y113.923 E197.18165
G1 X94.64 Y114.038 E197.19973
G1 X94.3 Y114.075 E197.21715
G1 X25.7 Y114.075 E200.71092
G1 X25.348 Y114.035 E200.72896
G1 X25.014 Y113.918 E200.74699
G1 X24.714 Y113.728 E200.76507
G1 X24.464 Y113.477 E200.78311
G1 X24.277 Y113.176 E200.80116
G1 X24.162 Y112.84 E200.81925
G1 X24.125 Y112.5 E200.83667
G1 X24.125 Y7.666 E206.17582
G0 F1620 X24.125 Y7.5
G0 X24.165 Y7.148
G0 F4320 X24.515 Y7.19
G1 F2400 E206.2023
G1 F1800 X24.632 Y6.9 E206.21823
G1 X24.818 Y6.65 E206.2341
G1 X25.062 Y6.454 E206.25004
G1 X25.347 Y6.327 E206.26593
G1 X25.7 Y6.275 E206.2841
G1 X94.3 Y6.275 E209.77787
G1 X94.61 Y6.315 E209.79379
G1 X94.9 Y6.432 E209.80972
G1 X95.15 Y6.618 E209.82558
G1 X95.346 Y6.862 E209.84152
G1 X95.473 Y7.147 E209.85742
G1 X95.525 Y7.5 E209.87559
G1 X95.525 Y112.5 E215.22319
G1 X95.485 Y112.81 E215.23911
G1 X95.368 Y113.1 E215.25504
G1 X95.182 Y113.35 E215.27091
G1 X94.938 Y113.546 E215.28685
G1 X94.653 Y113.673 E215.30274
G1 X94.3 Y113.725 E215.32091
